Newaita/actions/22/draw-cross.svg

<svg height="22" viewBox="0 0 22 22" width="22" xmlns="http://www.w3.org/2000/svg"><path d="m8.1875 2.90625c-.5 0-.90625.402344-.90625.902344v3.644531h-3.644531c-.5 0-.902344.40625-.902344.90625v5.457031c0 .5.402344.90625.902344.90625h3.644531v3.640625c0 .5.40625.90625.90625.90625h5.457031c.5 0 .90625-.40625.90625-.90625v-3.640625h3.640625c.5 0 .90625-.40625.90625-.90625v-5.457031c0-.5-.40625-.90625-.90625-.90625h-3.640625v-3.644531c0-.5-.40625-.902344-.90625-.902344zm.902344 1.808594h3.648437v3.644531c0 .5.40625.902344.90625.902344h3.640625v3.648437h-3.640625c-.5 0-.90625.40625-.90625.90625v3.640625h-3.648437v-3.640625c0-.5-.402344-.90625-.902344-.90625h-3.644531v-3.648437h3.644531c.5 0 .902344-.402344.902344-.902344zm0 0" fill="#424242"/></svg>

<svg xmlns="http://www.w3.org/2000/svg" xmlns:xlink="http://www.w3.org/1999/xlink" width="22px" height="22px" viewBox="0 0 22 22" version="1.1">
<g id="surface1">
     <defs>
  <style id="current-color-scheme" type="text/css">
   .ColorScheme-Text { color:#424242; } .ColorScheme-Highlight { color:#eeeeee; }
  </style>
 </defs>
<path style="fill:currentColor" class="ColorScheme-Text" d="M 8.1875 2.90625 C 7.6875 2.90625 7.28125 3.308594 7.28125 3.808594 L 7.28125 7.453125 L 3.636719 7.453125 C 3.136719 7.453125 2.734375 7.859375 2.734375 8.359375 L 2.734375 13.816406 C 2.734375 14.316406 3.136719 14.722656 3.636719 14.722656 L 7.28125 14.722656 L 7.28125 18.363281 C 7.28125 18.863281 7.6875 19.269531 8.1875 19.269531 L 13.644531 19.269531 C 14.144531 19.269531 14.550781 18.863281 14.550781 18.363281 L 14.550781 14.722656 L 18.191406 14.722656 C 18.691406 14.722656 19.097656 14.316406 19.097656 13.816406 L 19.097656 8.359375 C 19.097656 7.859375 18.691406 7.453125 18.191406 7.453125 L 14.550781 7.453125 L 14.550781 3.808594 C 14.550781 3.308594 14.144531 2.90625 13.644531 2.90625 Z M 9.089844 4.714844 L 12.738281 4.714844 L 12.738281 8.359375 C 12.738281 8.859375 13.144531 9.261719 13.644531 9.261719 L 17.285156 9.261719 L 17.285156 12.910156 L 13.644531 12.910156 C 13.144531 12.910156 12.738281 13.316406 12.738281 13.816406 L 12.738281 17.457031 L 9.089844 17.457031 L 9.089844 13.816406 C 9.089844 13.316406 8.6875 12.910156 8.1875 12.910156 L 4.542969 12.910156 L 4.542969 9.261719 L 8.1875 9.261719 C 8.6875 9.261719 9.089844 8.859375 9.089844 8.359375 Z M 9.089844 4.714844 "/>
</g>
</svg>
